theory/system/roles/maker/maker.svg

<svg viewBox="0 0 198.43 198.43" xmlns="http://www.w3.org/2000/svg"><path d="m181.64 33.14c-1.82-3.15-5.29-5-9.52-5h-145.82c-8.89 0-13.49 8-9 15.68l72.86 126.32c4.44 7.69 13.65 7.71 18.1 0l72.91-126.28c2.12-3.67 2.29-7.57.47-10.72zm-81.39 40-57.42-33.14h114.84zm-66.87-25 59.85 34.58v69.11zm71.62 103.96v-68.1l59-34z" fill="#ff4f00"/></svg>

<svg id="Layer_1" data-name="Layer 1" xmlns="http://www.w3.org/2000/svg" viewBox="0 0 198.43 198.43"><defs><style>.cls-1{fill:#ff4f00;}</style></defs><path class="cls-1" d="M181.64,33.14c-1.82-3.15-5.29-5-9.52-5H26.3c-8.89,0-13.49,8-9,15.68L90.16,170.14c4.44,7.69,13.65,7.71,18.1,0L181.17,43.86C183.29,40.19,183.46,36.29,181.64,33.14Zm-81.39,40L42.83,40H157.67Zm-66.87-25L93.23,82.72v69.11ZM105,152.1V84l59-34Z"/></svg>
